X:58603581136381
T:7-8-8-11-5-10-5-8-2-9-6-6-9-9-3-11
%%setfont-1 Courier-Bold 8
T:$1K.516f::104:60:171:61:161:129:159:127:70:88:64:125:51:115:116:78::$0
T:$1Perm. No.: 58603581136381$0
M:3/8
L:1/8
Q:1/8=111
%%staves [1 2]
V:1 clef=treble
V:2 clef=bass
K:C
%1
[V:1]|: e/d/e/g/c'/g/ |\
[V:2]|: C,2z |\
%2
[V:1] gf/e/d/c/ |\
[V:2] [E,2C,2]z |\
%3
[V:1] B/c/d/e/f/d/ |\
[V:2] [G,2G,,2][G,B,,] |\
%4
[V:1] ce/c/g |\
[V:2] [G,2E,2]z |\
%5
[V:1] [d^F][d^F][d^F] |\
[V:2] C,C,C,   |\
%6
[V:1] a/g/^f/g/d |\
[V:2] [D,B,,][D,B,,][G,B,,] |\
%7
[V:1] e/g/d/c/B/A/ \
[V:2] C,D,D,, \
%8a
[V:1]|1 [g2d2B2G2]z :|2
[V:2]|1 G,,G,/=F,/E,/D,/ :|2
%8b
[V:1] [g2d2B2G2]z |:\
[V:2] G,,B,/G,/^F,/E,/ |:\
%9
[V:1] ^fa/f/d/f/ |\
[V:2] D,2C, |\
%10
[V:1] g/d/g/b/g/d/ |\
[V:2] [D,2B,,2][D,B,,] |\
%11
[V:1] e/g/c'/g/e/c/ |\
[V:2] [G,2C,2][G,C,] |\
%12
[V:1] g/e/d/B/G |\
[V:2] G,G,,z |\
%13
[V:1] c/G/e/c/g/e/ |\
[V:2] [E,2C,2]z |\
%14
[V:1] c/G/e/c/g/e/ |\
[V:2] [E,2C,2]z |\
%15
[V:1] d/f/a/f/d/B/ |\
[V:2] F,2G, |\
%16
[V:1] cCz :|]
[V:2] C,2C,, :|]
